dist/img/svg/icon-instagram.svg

<svg width="30" height="30" viewBox="0 0 30 30" fill="none" xmlns="http://www.w3.org/2000/svg">
<circle cx="15" cy="15" r="15" fill="#006A6A"/>
<path d="M15.0018 10.8978C12.7316 10.8978 10.9005 12.7293 10.9005 15C10.9005 17.2707 12.7316 19.1022 15.0018 19.1022C17.2719 19.1022 19.1031 17.2707 19.1031 15C19.1031 12.7293 17.2719 10.8978 15.0018 10.8978ZM15.0018 17.667C13.5347 17.667 12.3354 16.4709 12.3354 15C12.3354 13.5291 13.5312 12.333 15.0018 12.333C16.4724 12.333 17.6682 13.5291 17.6682 15C17.6682 16.4709 16.4688 17.667 15.0018 17.667ZM20.2274 10.73C20.2274 11.262 19.7991 11.6868 19.2708 11.6868C18.739 11.6868 18.3142 11.2584 18.3142 10.73C18.3142 10.2016 18.7426 9.77318 19.2708 9.77318C19.7991 9.77318 20.2274 10.2016 20.2274 10.73ZM22.9438 11.7011C22.8831 10.4194 22.5904 9.28406 21.6516 8.34866C20.7165 7.41325 19.5814 7.1205 18.2999 7.05623C16.9793 6.98126 13.0207 6.98126 11.7001 7.05623C10.4222 7.11693 9.28712 7.40968 8.34835 8.34509C7.40959 9.28049 7.12047 10.4158 7.05622 11.6975C6.98126 13.0185 6.98126 16.9779 7.05622 18.2989C7.1169 19.5806 7.40959 20.7159 8.34835 21.6513C9.28712 22.5867 10.4186 22.8795 11.7001 22.9438C13.0207 23.0187 16.9793 23.0187 18.2999 22.9438C19.5814 22.8831 20.7165 22.5903 21.6516 21.6513C22.5868 20.7159 22.8795 19.5806 22.9438 18.2989C23.0187 16.9779 23.0187 13.0221 22.9438 11.7011ZM21.2376 19.7163C20.9592 20.416 20.4202 20.9551 19.717 21.2372C18.664 21.6549 16.1654 21.5585 15.0018 21.5585C13.8381 21.5585 11.336 21.6513 10.2866 21.2372C9.58695 20.9587 9.04796 20.4196 8.76598 19.7163C8.34835 18.6631 8.44473 16.1639 8.44473 15C8.44473 13.8361 8.35192 11.3334 8.76598 10.2837C9.04439 9.58396 9.58338 9.04485 10.2866 8.7628C11.3395 8.34509 13.8381 8.44148 15.0018 8.44148C16.1654 8.44148 18.6676 8.34866 19.717 8.7628C20.4166 9.04128 20.9556 9.58039 21.2376 10.2837C21.6552 11.3369 21.5588 13.8361 21.5588 15C21.5588 16.1639 21.6552 18.6666 21.2376 19.7163Z" fill="white"/>
</svg>

<svg width="30" height="30" viewBox="0 0 30 30" fill="none" xmlns="http://www.w3.org/2000/svg"><circle cx="15" cy="15" r="15" fill="#006A6A"/><path d="M15.002 10.898A4.095 4.095 0 0010.9 15a4.095 4.095 0 004.102 4.102A4.095 4.095 0 0019.103 15a4.095 4.095 0 00-4.101-4.102zm0 6.769A2.672 2.672 0 0112.335 15a2.67 2.67 0 012.667-2.667A2.67 2.67 0 0117.668 15c0 1.47-1.2 2.667-2.666 2.667zm5.225-6.937a.954.954 0 01-.956.957.957.957 0 11.957-.957zm2.717.971c-.06-1.282-.354-2.417-1.292-3.352-.936-.936-2.07-1.229-3.352-1.293-1.32-.075-5.28-.075-6.6 0-1.278.06-2.413.354-3.352 1.29-.938.934-1.228 2.07-1.292 3.351-.075 1.322-.075 5.28 0 6.602.06 1.282.354 2.417 1.292 3.352.94.936 2.07 1.229 3.352 1.293 1.32.075 5.28.075 6.6 0 1.281-.06 2.416-.354 3.352-1.293.935-.935 1.227-2.07 1.292-3.352.075-1.321.075-5.277 0-6.598zm-1.706 8.015a2.7 2.7 0 01-1.521 1.521c-1.053.418-3.552.322-4.715.322-1.164 0-3.666.092-4.715-.322a2.7 2.7 0 01-1.521-1.52c-.418-1.054-.321-3.553-.321-4.717 0-1.164-.093-3.667.321-4.716a2.7 2.7 0 011.52-1.521c1.053-.418 3.552-.322 4.716-.322 1.163 0 3.666-.092 4.715.322a2.7 2.7 0 011.52 1.52c.418 1.054.322 3.553.322 4.717 0 1.164.096 3.667-.321 4.716z" fill="#fff"/></svg>
